images/icon/example-rep.svg

<svg width="25" height="25" viewBox="0 0 25 25" fill="none" xmlns="http://www.w3.org/2000/svg">
<path d="M21.6875 11.5H18.6875V4.5C18.6875 4.23478 18.5821 3.98043 18.3946 3.79289C18.2071 3.60536 17.9527 3.5 17.6875 3.5H3.6875C3.42228 3.5 3.16793 3.60536 2.98039 3.79289C2.79286 3.98043 2.6875 4.23478 2.6875 4.5V18.5C2.6875 20.154 4.0335 21.5 5.6875 21.5H19.6875C21.3415 21.5 22.6875 20.154 22.6875 18.5V12.5C22.6875 12.2348 22.5821 11.9804 22.3946 11.7929C22.2071 11.6054 21.9527 11.5 21.6875 11.5ZM5.6875 19.5C5.42228 19.5 5.16793 19.3946 4.98039 19.2071C4.79286 19.0196 4.6875 18.7652 4.6875 18.5V5.5H16.6875V18.5C16.6875 18.851 16.7485 19.188 16.8585 19.5H5.6875ZM20.6875 18.5C20.6875 18.7652 20.5821 19.0196 20.3946 19.2071C20.2071 19.3946 19.9527 19.5 19.6875 19.5C19.4223 19.5 19.1679 19.3946 18.9804 19.2071C18.7929 19.0196 18.6875 18.7652 18.6875 18.5V13.5H20.6875V18.5Z" fill="#2285E0"/>
<path d="M6.6875 7.5H14.6875V9.5H6.6875V7.5ZM6.6875 11.5H14.6875V13.5H6.6875V11.5ZM11.6875 15.5H14.6875V17.5H11.6875V15.5Z" fill="#2285E0"/>
</svg>

<svg width="25" height="25" fill="none" xmlns="http://www.w3.org/2000/svg"><path d="M21.688 11.5h-3v-7a1 1 0 00-1-1h-14a1 1 0 00-1 1v14c0 1.654 1.345 3 3 3h14c1.654 0 3-1.346 3-3v-6a1 1 0 00-1-1zm-16 8a1 1 0 01-1-1v-13h12v13c0 .351.06.688.17 1H5.688zm15-1a1 1 0 01-2 0v-5h2v5z" fill="#2285E0"/><path d="M6.688 7.5h8v2h-8v-2zm0 4h8v2h-8v-2zm5 4h3v2h-3v-2z" fill="#2285E0"/></svg>
